X:1
T:Once to Every Man and Nation
T:Once to Every Man and Nation
T:Thomas John Williams, 1890
T:James Russell Lowell, 1845
T:Public Domain Courtesy of the Cyber Hymnal™
T:Public Domain Courtesy of the Cyber Hymnal™
C:Thomas John Williams, 1890
Z:Public Domain
Z:Courtesy of the Cyber Hymnal™
%%score ( 1 2 ) ( 3 4 )
L:1/8
Q:1/4=102
M:none
K:Ab
V:1 treble 
V:2 treble 
V:3 bass 
V:4 bass 
V:1
 [CF]2 (3(FGA) [=EG]2 F2 x11/8 | [FG]2 (3(GAB) (A>G) [CF]2 | [Cc]2 (3(Bc[Fd]) (c>B) [FA]2 | %3
w: 1.~Once to * * ev- ery|man and * * na- * tion,|Comes the * * mo- * ment|
w: 2.~Then to * * side with|truth is * * no- * ble,|When we * * share * her|
w: 3.~By the * * light of|burn- ing * * mar- * tyrs,|Christ, Thy * * bleed- * ing|
w: 4.~Though the * * cause of|e- vil * * pros- * per,|Yet the * * truth * a-|
 (B>A) [=EG]2 F4 | [CF]2 (3(FGA) [=EG]2 F2 x11/8 | [FG]2 (3(GAB) (A>G) [CF]2 | %6
w: to * de- cide,|In the * * strife of|truth with * * false- * hood,|
w: wretch- * ed crust,|Ere her * * cause bring|fame and * * pro- * fit,|
w: feet * we track,|Toil- ing * * up new|Cal- v’ries * * ev- * er|
w: lone * is strong;|Though her * * por- tion|be the * * scaf- * fold,|
 [Cc]2 (3(Bc[Fd]) (c>B) [FA]2 | (B>A) [=EG]2 F4 | [Ec]2 (3(ABc) [EB]2 [EB]2 | %9
w: For the * * good * or|e- * vil side;|Some great * * cause, some|
w: And ’tis * * pros- * perous|to * be just;|Then it * * is the|
w: With the * * cross * that|turns * not back;|New oc- * * ca- sions|
w: And up- * * on * the|throne * be wrong;|Yet that * * scaf- fold|
 [CA]2 (3(F-[FG]{g}A) [FG]2 G2 x | F2 (3(FGA) [FB]2 [EB]2 | [CA]2 (3(BAB) [=Ec]4 | %12
w: great de- * * ci- sion,|Off- ering * * each the|bloom or * * blight,|
w: brave man * * choos- es|While the * * cow- ard|stands a- * * side,|
w: teach new * * du- ties,|Time makes * * an- cient|good un- * * couth,|
w: sways the * * fu- ture,|And be- * * hind the|dim un- * * known,|
 [A,F]2 (3(F-[FG]{g}A) [=EG]2 F2 x | [FG]2 (3(GAB) (A>G) F2 x11/8 | [Ec]2 (3(Bcd) (c>B) [FA]2 | %15
w: And the * * choice goes|by for- * * ev- * er,|’Twixt that * * dark- * ness|
w: Till the * * mul- ti-|tude make * * vir- * tue|Of the * * faith * they|
w: They must * * up- ward|still and * * on- * ward,|Who would * * keep * a-|
w: Stand- eth * * God with-|in the * * sha- * dow,|Keep- ing * * watch * a-|
 (B>A) [=EG]2 F4 |] %16
w: and * that light.|
w: had * de- nied.|
w: breast * of truth.|
w: bove * His own.|
V:2
 x2 C2 x10/3{f'} F2 | x2 =E2 x4/3{f'} F2 x2/3 | x2 E2 x4/3{a'} G2 x2/3 | F2 x/ F4 x3/2 | %4
 x2 C2 x10/3{f'} F2 | x2 =E2 x4/3{g'} F2 x2/3 | x2 E2 x4/3{a'} G2 x2/3 | F2 x/ F4 x3/2 | %8
 x2{g'} E2 x4 | x7 G2 | F2{f'} C2 x4 | x2{g'} F2 x4 | x7 F2 | x2 =E2 x4/3{g'} F2 F2 | %14
 x2 E2 x4/3{a'} E2 x2/3 | F2 x/ F4 x3/2 |] %16
V:3
 [F,,A,]2 [A,,C]2 [C,C]2 [D,A,]2 x11/8 | [B,,D]2 [C,C]2 (C>B,) [F,A,]2 | %2
 [A,E]2 [G,B,][G,B,] [=E,C]2 [F,C]2 | (D>C) [C,B,]2 [F,A,]4 | %4
 [F,,A,]2 [A,,C]2 [C,C]2 [D,A,]2 x11/8 | [B,,D]2 [C,C]2 (C>B,) [F,A,]2 | %6
 [A,E]2 (3([G,B,]-{A}[G,B,]{G,}[F,A,]) [=E,C]2 [F,C]2 | (D>C) [C,B,]2 [F,A,]4 | %8
 [A,,A,]2 [C,A,]2 [E,A,]2 [E,G,]2 | [F,A,]2 [A,,C]2 [C,C]2 [C,C]2 x | F,2 [E,A,]2 [D,A,]2 [E,G,]2 | %11
 A,2 [D,F,]2 [C,G,]4 | [D,F,]2 [A,,C]2 [C,C]2 [D,A,]2 x | [B,,D]2 [C,C]2 (C>B,) [F,A,]2 x11/8 | %14
 A,2 (3(G,A,{E}B,) (A,>G,) [D,F,]2 | (D>C) [C,B,]2 [F,A,]4 |] %16
V:4
 x75/8 | x4 F,2 x2 | x8 | B,,2 x6 | x75/8 | x4 F,2 x2 | x8 | B,,2 x6 | x8 | x9 | F,2 x6 | %11
 (F,E,) x6 | x9 | x4 F,2 x27/8 | A,2 E,2 x4/3 A,,2 x2/3 | B,,2 x6 |] %16

